**kern	**dynam
*I"Violin I	*
*I'Vln. I	*
*clefG2	*
*k[b-]	*
*F:	*
*M3/4	*
=1	=1
4FF' [4A [4c [4f	p
4AA' 4A_ 4c_ 4f_	.
4BB-' 4A] 4c_ 4f_	.
=2	=2
[4C [4G 4c_ 4f]	.
4C'] 4G] 4c] 4e	.
8BB-L [8c [8d [8f#X	.
8AA'J 8c] 8d] 8f#]	.
=3	=3
4GG' [4B- [4d [4g	.
4BB-' 4B-_ 4d_ 4g_	.
4C' 4B-] 4d_ 4g_	.
=4	=4
[4D [4A 4d_ 4g]	.
4D'] 4A] 4d] 4f#X	.
8CL [8d [8e [8g#X	.
8BBn'J 8d] 8e] 8g#]	.
=5	=5
4AA [4c [4e [4a	.
4C 4c] 4e] 4a]	.
4E [4e 4g#X 4bn	.
=6	=6
4A' 4e] 4a 4cc	.
2r	.
=7	=7
2.GT 2.f 2.bn 2.dd	.
=8	=8
4c 4e 4cc 4ee	.
2r	.
=9	=9
2.GGT 2.F 2.Bn 2.d	f
=10	=10
4C 4E 4c	.
2r	.
=11	=11
2A-X~ 2c 2e-X 2cc	p
4c' 4e-X 4a-X 4ee-X	.
=12	=12
[4B- [4e-X [4g 4ee-X	.
4B-] 4e-] 4g] 4dd-X	.
4E-X' 4B- 4g 4dd-	.
=13	=13
[4A-X 4B- 4g 4dd-X	.
4A-] 4a-X 4cc	.
4AA-X' 4A-X 4a-X 4cc	.
=14	=14
2F 2c 2a-X	.
4A-X' 4c 4f 4cc	.
=15	=15
[4G [4c [4e 4cc	.
4G~] 4c] 4e] 4b-	.
4C' 4c 4e 4b-	.
=16	=16
[4F [4c 4e 4b-	.
4F] 4c] 4f 4a-X	.
4FF' 4c 4f 4a-	.
=17	=17
4d-X' [4dd-X [4ff	.
4f' 4dd-_ 4ff_	.
4g-X' 4dd-_ 4ff_	.
=18	=18
[4A-X' 4a-X 4dd-X] 4ff]	.
4A-'] 4cc 4ee-X	.
8G-XL [8ddn [8ff	.
8F'J 8dd] 8ff]	.
=19	=19
4E-X' 4e-X [4ee-X [4gg-X	.
4g-X' 4ee-_ 4gg-_	.
4a-X' 4ee-_ 4gg-_	.
=20	=20
[4B-' 4b- 4ee-X] 4gg-X]	.
4B-'] 4dd 4ff	.
8A-XL [8een [8ggn	.
8G'J 8ee] 8gg]	.
=21	=21
4F' 4f [4ff [4aa-X	.
4A-X' 4a-X 4ff_ 4aa-_	.
4B-' 4b- 4ff_	.
=22	=22
[4c [4cc 4ff] 4aa-X]	.
4c'] 4cc] 4ee 4gg	.
8B-L 8b- [8ff [8aa-X	.
8A-X'J 8a-X 8ff] 8aa-]	.
=23	=23
4G 4g [4gg [4bb-	.
4F 4f 4gg_ 4bb-_	.
4E 4e 4gg_ 4bb-_	.
=24	=24
4F 4f 4gg] 4bb-]	.
4D-X 4d-X 4ff 4aa-X	.
4BBn' 4Bn 4ff 4aa-	.
=25	=25
4C' 4c 4ee 4gg	.
4c' 4cc	.
4bbn' 4ccc	.
=26	=26
4C' 4c 4ff 4aa-X	.
4c' 4cc	.
4bbn' 4ccc	.
=27	=27
4C' 4c 4ee 4gg	.
4c' 4cc	.
4bbn' 4ccc	.
=28	=28
4C' 4c 4f 4aa-X	.
4c' 4cc	.
4bbn' 4ccc	.
=29	=29
4C' 4c 4e 4gg	.
4e'	.
4f'	.
=30	=30
4E' 4G 4c 4g	.
4E' 4c 4e	pp
4D' 4d 4f	.
=31	=31
4C' 4e 4g 4cc	.
4ee'	.
4ff'	.
=32	=32
4GG' 4B- 4cc 4gg	.
4EE' 4G 4ee	.
4DD' 4F 4ff	.
=33	=33
4CC' 4E 4e 4gg	.
4g'	.
4a'	.
=34	=34
4G' 4e 4b-	.
4E' 4g	.
4D' 4f 4a	.
=35	=35
4C' 4e 4b- 4ee	.
4gg'	.
4aa'	.
=36	=36
4C' 4bb-	.
4BB-' 4G 4c 4e	.
4GG' 4G 4c 4e	.
=37	=37
4FF' [4A [4c [4f	.
4AA' 4A] 4c] 4f_	.
4BBn' 4A-X [4d 4f_	.
=38	=38
[4C [4G 4d] 4f]	.
4C'] 4G] 4c 4e	.
8BB-L [8c [8d [8f#X	.
8AA'J 8c_ 8d] 8f#]	.
=39	=39
4GG 4c] [4d [4g	.
4BBn' 4Bn 4d] 4g_	.
4C#X' 4B-X [4e	.
=40	=40
[4D [4A 4e] 4g]	.
4D'] 4A] 4d 4f#X	.
8CL [8d [8e [8g#X	.
8BBn'J 8d_ 8e] 8g#]	.
=41	=41
4AA 4d] [4e [4a	.
4C 4c 4e] 4a]	.
4E [4e 4g#X 4bn	p
=42	=42
4A' 4e] 4a 4cc	.
2r	.
=43	=43
4D [4f [4a [4dd	.
4F 4f] 4a] 4dd]	.
4A 4a 4cc#X 4ee	pp
=44	=44
4d' 4a 4dd 4ff	.
2r	.
=45	=45
4F [4a [4cc [4ff	ppp
4A 4a] 4cc] 4ff]	.
4c 4cc 4ee 4gg	.
=46	=46
4f' 4cc 4ff 4aa	.
2r	.
=47	=47
2.cT 2.b- 2.ee 2.gg	.
=48	=48
4f 4a 4ff 4aa	.
2r	.
=49	=49
2.CT 2.B- 2.e 2.g	.
=50	=50
4F 4A 4f	.
2r	.
=51	=51
[4GGT [4G	.
2GGT] 2G] 2B- 2e	sf
=52	=52
4FF 4F 4A 4f	.
4cc'	.
4cc'	.
=53	=53
[4GGT [4G	.
2GGT] 2G] 2B- 2e	.
=54	=54
4FF 4F 4A 4f	sf
4ff'	.
4ff'	.
=55	=55
[4GGT [4G	.
2GGT] 2G] 2B- 2e	.
=56	=56
4FF 4F 4A 4f	sf
4cc' 4ccc	.
4cc' 4ccc	.
=57	=57
4AAt 4C [4e-X [4ee-X	sf
4At 4e-_ 4f#X 4ee-_	.
4A't 4e-] 4f#X 4ee-]	.
=58	=58
4B- 4d 4g 4dd	.
4BB- 4d	.
4BB- 4d	.
=59	=59
4e 4ee	.
4C 4B-	.
4C 4B-	.
=60	=60
4F 4A 4f 4ff	.
4cc' 4ccc	.
4cc' 4ccc	.
=61	=61
4AAt 4C [4e-X [4ee-X	.
4At 4e-_ 4f#X 4ee-_	.
4A't 4e-] 4f#X 4ee-]	.
=62	=62
4B- 4d 4g 4dd	sf
4BB- 4d	.
4BB- 4d	.
=63	=63
4e 4ee	.
4C 4B-	.
4C 4B-	.
=64	=64
4F' 4A [4a [4ff	.
4A' 4c 4a] 4ff_	.
4Bn' 4d 4a-X 4ff_	.
=65	=65
[4c [4e [4g 4ff]	.
4c'] 4e] 4g] 4ee	.
8B-L 8d [8cc [8ff#X	.
8A'J 8c 8cc] 8ff#]	.
=66	=66
4G' 4d 4b- [4gg	.
4B-' 4b- 4dd 4gg_	.
4c#X' 4a [4ee 4gg_	.
=67	=67
[4d [4a 4ee] 4gg]	.
4d'] 4a] 4dd 4ff#X	.
8cL [8e [8dd [8gg#X	.
8Bn'J 8e] 8dd] 8gg#]	.
=68	=68
4A 4e 4cc [4aa	.
4g 4a 4cc#X 4aa_	.
4f 4bn 4dd 4aa_	.
=69	=69
4e 4cc#X 4ee 4aa_	.
4d 4dd 4ff 4aa_	.
4c#X 4ee 4gg 4aa_	.
=70	=70
4d' 4dd 4ff 4aa]	.
4c 4e-X 4ff#X 4aa	f
4B- 4d 4gg 4bb-	.
=71	=71
4A 4c 4aa 4ccc	.
4G 4B- 4bb- 4ddd	.
4F#X 4A 4ccc 4eee-X	.
=72	=72
4G 4B- 4bb- 4ddd	.
4B- 4b- 4gg 4bb-	.
4Bn 4bn 4ffn 4aa	.
=73	=73
4c' 4cc 4ee 4gg	.
4EE 4E 4bb- 4ddd	.
4FF 4F 4aa 4ccc	.
=74	=74
4GG 4G 4gg 4bb-	.
4AA 4A 4ff 4aa	.
4BB- 4B- 4ee 4gg	.
=75	=75
4C 4c 4dd 4ff	.
4D 4d 4cc 4ee	.
4E 4e 4b- 4dd	.
=76	=76
4F 4f 4a 4cc	.
4G 4c 4e 4b-	.
4A 4c 4f 4a	.
=77	=77
4BB- 4B- 4d 4g	.
4GG' 4B- 4g 4b-	.
4C' 4G 4B- 4e	.
=78	=78
4FF' 4A 4f	.
4A' 4a	.
[4F' [4A-X 4Bn 4bn	sf
=79	=79
4F] 4A-X] [4c [4cc	.
4E' 4G 4c_ 4cc_	.
4C' 4E 4c] 4cc]	.
=80	=80
4F' 4An 4f 4ff	.
4a' 4aa	.
[4FF' [4A-X 4bn 4bbn	sf
=81	=81
4FF'] 4A-X] [4cc [4ccc	.
4EE' 4G 4cc_ 4ccc_	.
4CC' 4E 4cc_ 4ccc_	.
=82	=82
4FF' 4An 4cc] 4ccc]	.
4EE' 4G [4cc [4ccc	sf
4CC' 4E 4cc_ 4ccc_	.
=83	=83
4FF' 4A 4cc] 4ccc]	.
4E' 4g [4cc [4ccc	sf
4C' 4e 4cc_ 4ccc_	.
=84	=84
4F' 4a 4cc] 4ccc]	.
4FF' 4c 4a 4aa	.
4FF' 4c 4a 4aa	.
=85	=85
4FF' 4A 4f 4ff	.
2r	.
=86	=86
4C' 4c 4bn 4cc	ff
4r	.
4CC' 4C 4c	.
=87	=87
4C' 4c 4bn 4cc	.
4r	.
4CC' 4C 4c	.
=88	=88
4C' 4c 4bn 4cc	.
4CC' 4C 4c	.
4C' 4c 4cc	.
=89	=89
4CC' 4C 4c	.
4C' 4c 4cc	.
4CC' 4C 4c	.
=90	=90
[8DD-XL [8D-X [8A-X 8d-X [8f	p
8DD-J_ 8D-_ 8A-_ 8e-X 8f_	.
8DD-L_ 8D-_ 8A-_ 8d-X 8f_	.
8DD-J_ 8D-_ 8A-_ 8c 8f_	.
8DD-L_ 8D-_ 8A-_ 8d-X 8f_	.
8DD-J] 8D-] 8A-] 8e-X 8f]	.
=91	=91
[8DD-XL [8A-X [8d-X [8f	sf
8DD-J_ 8A-_ 8d-_ 8f_ 8g-X	.
8DD-L_ 8A-_ 8d-_ 8f_ 8a-X	.
8DD-J_ 8A-_ 8d-_ 8f_ 8b-	.
8DD-L_ 8A-_ 8d-_ 8f_ 8cc	.
8DD-J_ 8A-_ 8d-_ 8f_ 8dd-X	.
=92	=92
8DD-XL_ 8A-X_ 8d-X_ 8f_ 8ee-X	.
8DD-J_ 8A-_ 8d-_ 8f_ 8ff	.
8DD-L_ 8A-_ 8d-_ 8f_ 8gg-X	.
8DD-J_ 8A-_ 8d-_ 8f_ 8ff	.
8DD-L_ 8A-_ 8d-_ 8f_ 8ee-X	.
8DD-J_ 8A-_ 8d-_ 8f_ 8dd-X	.
=93	=93
8DD-XL_ 8A-X_ 8d-X_ 8f_ 8cc	.
8DD-J_ 8A-_ 8d-_ 8f_ 8b-	.
8DD-L_ 8A-_ 8d-_ 8f_ 8a-X	.
8DD-J_ 8A-] 8d-] 8f] 8g-X	.
8DD-L_ [8A-X [8c 8f [8g-	.
8DD-'J] 8A-] 8c] 8e-X 8g-]	.
=94	=94
[8DD-XL [8A-X [8d-X [8f	.
8DD-J_ 8A-_ 8d-_ 8e-X 8f_	.
8DD-L_ 8A-_ 8d-_ 8f_	.
8DD-J_ 8A-_ 8c 8d-_ 8f_	.
8DD-L_ 8A-_ 8d-_ 8f_	.
8DD-J] 8A-] 8d-] 8f]	.
=95	=95
[8DD-XL [8A-X [8d-X [8f	.
8DD-J_ 8A-_ 8d-_ 8f_ 8g-X	.
8DD-L_ 8A-_ 8d-_ 8f_ 8a-X	.
8DD-J_ 8A-_ 8d-_ 8f_ 8b-	.
8DD-L_ 8A-_ 8d-_ 8f_ 8cc	.
8DD-J_ 8A-_ 8d-_ 8f_ 8dd-X	.
=96	=96
8DD-XL_ 8A-X_ 8d-X_ 8f_ 8ee-X	.
8DD-J_ 8A-_ 8d-_ 8f_ 8ff	.
8DD-L_ 8A-_ 8d-_ 8f_ 8gg-X	.
8DD-J_ 8A-_ 8d-_ 8f_ 8ff	.
8DD-L_ 8A-_ 8d-_ 8f_ 8ee-X	.
8DD-J_ 8A-_ 8d-_ 8f_ 8dd-X	.
=97	=97
8DD-XL_ 8A-X_ 8d-X_ 8f_ 8cc	.
8DD-J_ 8A-_ 8d-_ 8f_ 8b-	.
8DD-L_ 8A-_ 8d-_ 8f_ 8a-X	.
8DD-J] 8A-_ 8d-] 8f] 8g-X	.
[8DD-XL 8A-_ [8c 8f [8g-	.
8DD-'J] 8A-] 8c] 8e-X 8g-]	.
=98	=98
[8DD-XL [8A-X [8d-X [8f	.
8DD-'J] 8A-] 8d-] 8f]	.
[8D-XL [8d-X 8e	.
8D-'J] 8d-] 8f	.
[8D-XL [8d-X 8e	.
8D-'J] 8d-] 8f	.
=99	=99
[8D-XL [8d-X	.
8D-J] 8d-] 8f	.
[8CL [8c	.
8CJ] 8c] 8f	.
[8BBnL [8Bn	.
8BBJ] 8B] 8f	.
=100	=100
[8CL [8c	.
8CJ] 8c] 8f	.
8a-XL	.
8ccJ	.
[8CCL [8C [8c	.
8CCJ] 8C] 8c] 8cc	.
=101	=101
4FF 4F 4f	.
2r	.
=102	=102
4f' [4an [4ee-X	pp
4a_ 4ee-_	.
4F' 4a_ 4ee-_	.
=103	=103
4f' 4a_ 4ee-X_	.
4a_ 4ee-_	.
4F' 4a_ 4ee-_	.
=104	=104
4f' 4a_ 4ee-X_	.
4F' 4a_ 4ee-_	.
4f' 4a_ 4ee-_	.
=105	=105
4F' 4a_ 4ee-X_	.
4f' 4a_ 4ee-_	.
4F' 4a] 4ee-]	.
=106	=106
4B-' [4f [4a-X [4ddn	.
4f_ 4a-_ 4dd_	.
4BB-' 4f_ 4a-_ 4dd_	.
=107	=107
4B-' 4f_ 4a-X_ 4dd_	.
4f_ 4a-_ 4dd_	.
4BB-' 4f_ 4a-_ 4dd_	.
=108	=108
4B-' 4f_ 4a-X_ 4dd_	.
4BB-' 4f_ 4a-_ 4dd_	.
4B-' 4f_ 4a-_ 4dd_	.
=109	=109
4BB-' 4f_ 4a-X_ 4dd_	.
4B-' 4f_ 4a-_ 4dd_	.
4BB-' 4f] 4a-] 4dd]	.
=110	=110
4g' [4b- [4dd-X	.
4G' 4b-_ 4dd-_	.
4g' 4b-_ 4dd-]	.
=111	=111
4En' [4g 4b-_ [4cc	.
4EE' 4g_ 4b-_ 4cc_	.
4E 4g_ 4b-] 4cc_	.
=112	=112
4f' 4g_ [4a-X 4cc_	.
4F' 4g_ 4a-_ 4cc_	.
4f' 4g] 4a-_ 4cc]	.
=113	=113
4F' [4f 4a-X_ [4cc	.
4FF' 4f_ 4a-_ 4cc_	.
4F' 4f] 4a-] 4cc]	.
=114	=114
4C' 4c 4e 4g 4cc	.
4r	.
4CC' 4C	.
=115	=115
4C' 4c	.
4r	.
4CC' 4C	.
=116	=116
4C' 4c	.
4CC' 4C	.
4C' 4c	.
=117	=117
4CC' 4C	.
4C' 4c	.
4CC' 4C	.
=118	=118
4C' 4c 4b- 4bn 4cc	p
4r	.
4CC' 4C 4c	.
=119	=119
4C' 4c 4b- 4bn 4cc	.
4r	.
4CC' 4C 4c	.
=120	=120
4C' 4c 4b- 4bn 4cc	.
4CC' 4C 4c	.
4C' 4c 4cc	.
=121	=121
4CC#X' 4C#X 4c#X	.
4C#X' 4c# 4cc#X	.
4CC#X' 4C#X 4c#X	.
=122	=122
[8DDL [8D [8d	.
8DDJ_ 8D_ 8d_ 8g	.
8DDL_ 8D_ 8d_ 8b-	.
8DDJ_ 8D_ 8d_ 8g	.
8DDL_ 8D_ 8d_ 8dd	.
8DDJ] 8D] 8d] 8b-	.
=123	=123
[8DDL [8D [8G [8B- 8gg	fp
8DDJ_ 8D_ 8G_ 8B-_ 8dd	.
8DDL_ 8D_ 8G_ 8B-_ 8bb-	.
8DDJ_ 8D_ 8G_ 8B-_ 8aa	.
8DDL_ 8D_ 8G_ 8B-_ 8gg	.
8DDJ_ 8D_ 8G_ 8B-_ 8ff	.
=124	=124
8DDL_ 8D_ 8G_ 8B-_ 8ee-X	.
8DDJ_ 8D_ 8G_ 8B-_ 8dd	.
8DDL_ 8D_ 8G_ 8B-_ 8cc	.
8DDJ_ 8D_ 8G_ 8B-_ 8b-	.
8DDL_ 8D_ 8G_ 8B-_ 8a	.
8DDJ_ 8D_ 8G] 8B-_ 8g	.
=125	=125
8DDL_ 8D_ [8G 8B-_ 8f#X	.
8DDJ_ 8D_ 8G_ 8B-_ 8g	.
8DDL_ 8D_ 8G_ 8B-_ 8f#X	.
8DDJ_ 8D_ 8G] 8B-] 8g	.
8DDL_ 8D_ [8A [8c 8a	.
8DD'J] 8D] 8A] 8c] 8f#X	.
=126	=126
[8DDL [8D [8G [8B- 8d	.
8DDJ_ 8D_ 8G_ 8B-_ 8g	.
8DDL_ 8D_ 8G_ 8B-_ 8b-	.
8DDJ_ 8D_ 8G_ 8B-_ 8g	.
8DDL_ 8D_ 8G_ 8B-_ 8dd	.
8DDJ] 8D] 8G] 8B-] 8b-	.
=127	=127
[8DDL [8D [8G [8B- 8gg	fp
8DDJ_ 8D_ 8G_ 8B-_ 8dd	.
8DDL_ 8D_ 8G_ 8B-_ 8bb-	.
8DDJ_ 8D_ 8G_ 8B-_ 8aa	.
8DDL_ 8D_ 8G_ 8B-_ 8gg	.
8DDJ_ 8D_ 8G_ 8B-_ 8ff	.
=128	=128
8DDL_ 8D_ 8G_ 8B-_ 8ee-X	.
8DDJ_ 8D_ 8G_ 8B-_ 8dd	.
8DDL_ 8D_ 8G_ 8B-_ 8cc	.
8DDJ_ 8D_ 8G_ 8B-_ 8b-	.
8DDL_ 8D_ 8G_ 8B-_ 8a	.
8DDJ_ 8D_ 8G_ 8B-_ 8g	.
=129	=129
8DDL_ 8D_ 8G_ 8B-_ 8f#X	.
8DDJ_ 8D_ 8G_ 8B-_ 8g	.
8DDL_ 8D_ 8G_ 8B-_ 8f#X	.
8DDJ_ 8D] 8G] 8B-] 8g	.
8DDL_ [8D [8A [8c 8a	.
8DD'J] 8D] 8A] 8c] 8f#X	.
=130	=130
[8GGL [8D 8G [8Bn	.
8GGJ_ 8D_ 8B_ 8bn	.
8GGL_ 8D_ 8B_ 8dd	.
8GGJ_ 8D_ 8B_ 8bn	.
8GGL_ 8D_ 8B_ 8ff	.
8GGJ] 8D] 8B] 8dd	.
=131	=131
[8GGL [8D [8Bn 8bbn	fp
8GGJ_ 8D_ 8B_ 8ff	.
8GGL_ 8D_ 8B_ 8ddd	.
8GGJ_ 8D_ 8B_ 8ccc	.
8GGL_ 8D_ 8B_ 8bbn	.
8GGJ_ 8D_ 8B] 8aa	.
=132	=132
8GGL_ 8D_ [8B- 8gg	.
8GGJ_ 8D_ 8B-_ 8ff	.
8GGL_ 8D_ 8B-_ 8ee	.
8GGJ_ 8D_ 8B-_ 8dd	.
8GGL_ 8D_ 8B-_ 8ff	.
8GGJ_ 8D_ 8B-_ 8dd	.
=133	=133
8GGL_ 8D_ 8B-_ 8cc	.
8GGJ_ 8D_ 8B-_ 8bn	.
8GGL_ 8D_ 8B-_ 8dd	.
8GGJ_ 8D] 8B-] 8bn	.
8GGL_ [8E [8c 8cc	.
8GG'J] 8E] 8c] 8ee	.
=134	=134
[8GGL [8D 8G [8Bn	.
8GGJ_ 8D_ 8B_ 8bn	.
8GGL_ 8D_ 8B_ 8dd	.
8GGJ_ 8D_ 8B_ 8bn	.
8GGL_ 8D_ 8B_ 8ff	.
8GGJ] 8D] 8B] 8dd	.
=135	=135
[8GGL [8D [8Bn 8bbn	fp
8GGJ_ 8D_ 8B_ 8ff	.
8GGL_ 8D_ 8B_ 8ddd	.
8GGJ_ 8D_ 8B_ 8ccc	.
8GGL_ 8D_ 8B_ 8bbn	.
8GGJ_ 8D_ 8B] 8aa	.
=136	=136
8GGL_ 8D_ [8Bn 8gg	.
8GGJ_ 8D_ 8B_ 8ff	.
8GGL_ 8D_ 8B_ 8ee	.
8GGJ_ 8D_ 8B_ 8dd	.
8GGL_ 8D_ 8B_ 8ff	.
8GGJ_ 8D_ 8B_ 8dd	.
=137	=137
8GGL_ 8D_ 8Bn_ 8cc	.
8GGJ_ 8D_ 8B_ 8bn	.
8GGL_ 8D_ 8B_ 8dd	.
8GGJ] 8D] 8B] 8bn	.
[8CL [8E [8c 8cc	.
8C'J] 8E] 8c] 8ee	.
=138	=138
[8CCL [8C [8G 8c [8e	.
8CCJ_ 8C_ 8G_ 8e_ 8cc	.
8CCL_ 8C_ 8G_ 8e_ 8ee	.
8CCJ_ 8C_ 8G_ 8e_ 8cc	.
8CCL_ 8C_ 8G_ 8e_ 8gg	.
8CCJ] 8C] 8G] 8e] 8ee	.
=139	=139
[8CCL [8C [8G [8e 8bb-	fp
8CCJ_ 8C_ 8G_ 8e_ 8aa	.
8CCL_ 8C_ 8G_ 8e_ 8gg	.
8CCJ_ 8C_ 8G_ 8e_ 8ff	.
8CCL_ 8C_ 8G_ 8e_ 8ee	.
8CCJ_ 8C_ 8G_ 8e_ 8dd	.
=140	=140
8CCL_ 8C_ 8G_ 8e_ 8cc	.
8CCJ_ 8C_ 8G_ 8e_ 8b-	.
8CCL_ 8C_ 8G_ 8e_ 8a	.
8CCJ_ 8C_ 8G_ 8e_ 8g	.
8CCL_ 8C_ 8G_ 8e_ 8b-	.
8CCJ_ 8C_ 8G_ 8e_ 8g	.
=141	=141
8CCL_ 8C_ 8G_ 8e_ 8f	.
8CCJ_ 8C_ 8G_ 8e_	.
8CCL_ 8C_ 8G_ 8e_ 8g	.
8CCJ] 8C] 8G] 8e]	.
[8CL [8A [8c [8f	.
8C'J] 8A] 8c] 8f] 8a	.
=142	=142
[8CCL [8C [8G 8c [8e	.
8CCJ_ 8C_ 8G_ 8e_ 8cc	.
8CCL_ 8C_ 8G_ 8e_ 8ee	.
8CCJ] 8C_ 8G_ 8e_ 8cc	.
8CL_ 8G_ 8e_ 8gg	.
8CJ] 8G] 8e] 8ee	.
=143	=143
[8CCL [8C [8G [8e 8bb-	fp
8CCJ_ 8C_ 8G_ 8e_ 8aa	.
8CCL_ 8C_ 8G_ 8e_ 8gg	.
8CCJ_ 8C_ 8G_ 8e_ 8ff	.
8CCL_ 8C_ 8G_ 8e_ 8ee	.
8CCJ_ 8C_ 8G_ 8e_ 8dd	.
=144	=144
8CCL_ 8C_ 8G_ 8e_ 8cc	.
8CCJ] 8C] 8G] 8e] 8bn	.
8ddL	.
8ccJ	.
8bnL	.
8ddJ	.
=145	=145
8ccL	.
8bnJ	.
8ddL	.
8ccJ	.
8b-XL	.
8gJ	.
==	==
*-	*-
